!!!OTL: Schweizerimann, S. 45
!!!id: R0053
**kern
*clefG2
*k[f#]
*G:
{16g
=1
16g
4g
8b
8a
=2
4g
4r
=3
4g
8b
8a
=4
4g}
4r
=5
{8.d
16g
8g
8g
=6
8g
8g
8f#
8g
=7
4a}
4r
=8
{8.d
16a
8a
8a
=9
8g
8a
4b}
=10
{4g
8b
8a
=11
4g
4r
=12
4g
8b
8a
=13
4g}
4r
==
*-
!!!minrhy: 16
!!!meters: 2/4 ]  ZZ[4
!!!cut: Schweizerimann, S. 45
!!!reg: Luxemburg
!!!trd: D'Fraen um Kanddaaf an der aler Zeit, Luxemburg 1929
!!!rhy1:   X__X_X_  X__0__  X__X_X_  X__0__
!!!rhy2: X_.XX_X_  X_X_X_X_  X__0__
!!!key: R0053  16  G 2/4 ]  ZZ[4
!!!mod: PENTATONIK ]  AMBITUS[6
!!!kad: 1231
!!!akz: 1111_-512_-51_1111_
!!!fot: 'a__b__c__a__
!!!for: 'a__b__bw_a__
!!!fok: '^__/__/__^__
!! PHRAS[VOLLTAKTIG]
!!!fkt: ??
!! RUDEN, J.M.:
!! PR[36] 2K[1] 2G[7] 3K[4] 3G[1] 4A[0] 4Ü[1] 5A[1] 6K[0] 6G[1]
!! 7K[3] 7G[0] 8A[0] MEHR[0] SI[22] ABS[69] SR[9] SP[13]
!! ST[32] 2k[9] 2g[22] 3k[6] 3g[3] 4d[1] 4ü[0] 5d[0] 6k[0] 6g[1]
!! 7k[0] 7g[0] 8d[0] mehr[0] si[42] dm[-20] sr[30] sp[12]
!! 1F[16] 2F[70] 3F[8] 4F[0] LF[0] 2P[0] 3P[6] 4P[0] TRI[0] DF[4] AB[86]
!! TF[0] U3K[0] U3[0] U4[0] U4Ü[0] U5[4] U6K[0] U6[1] U7K[0] U7[3]
!! N1[11] N2K[0] N2[10] N3K[0] N3[26] N4[19] N4Ü[0] N5[11] N6K[0] N6[14]
!!!n7k: 0] N7[0] O1[0] O2K[0] O2[0] O3K[0] O3[0] HÖ[0
